material/.icons/material/clover.svg

<svg xmlns="http://www.w3.org/2000/svg" viewBox="0 0 24 24"><path d="M12 11.18c3.3-3 5-4.54 5-6.49C17 3.19 15.75 2 14.25 2c-.86 0-1.68.36-2.25 1-.57-.64-1.39-1-2.31-1C8.19 2 7 3.25 7 4.75c0 1.89 1.7 3.43 5 6.43m-.82.82c-3-3.3-4.54-5-6.49-5C3.19 7 2 8.25 2 9.75c0 .86.36 1.68 1 2.25-.64.57-1 1.39-1 2.31C2 15.81 3.25 17 4.75 17c1.89 0 3.43-1.7 6.43-5m1.65 0c2.99 3.3 4.53 5 6.48 5 1.5 0 2.69-1.25 2.69-2.75 0-.86-.36-1.68-1-2.25.64-.57 1-1.39 1-2.31C22 8.19 20.75 7 19.25 7c-1.89 0-3.43 1.7-6.42 5m-.83.82c-3.3 3-5 4.54-5 6.49C7 20.81 8.25 22 9.75 22c.86 0 1.68-.36 2.25-1 .57.64 1.39 1 2.31 1 1.5 0 2.69-1.25 2.69-2.75 0-1.89-1.7-3.43-5-6.43z"/></svg>

<?xml version="1.0" encoding="UTF-8"?><!DOCTYPE svg PUBLIC "-//W3C//DTD SVG 1.1//EN" "http://www.w3.org/Graphics/SVG/1.1/DTD/svg11.dtd"><svg xmlns="http://www.w3.org/2000/svg" xmlns:xlink="http://www.w3.org/1999/xlink" version="1.1" id="mdi-clover" width="24" height="24" viewBox="0 0 24 24"><path d="M12,11.18C15.3,8.18 17,6.64 17,4.69C17,3.19 15.75,2 14.25,2C13.39,2 12.57,2.36 12,3C11.43,2.36 10.61,2 9.69,2C8.19,2 7,3.25 7,4.75C7,6.64 8.7,8.18 12,11.18M11.18,12C8.18,8.7 6.64,7 4.69,7C3.19,7 2,8.25 2,9.75C2,10.61 2.36,11.43 3,12C2.36,12.57 2,13.39 2,14.31C2,15.81 3.25,17 4.75,17C6.64,17 8.18,15.3 11.18,12M12.83,12C15.82,15.3 17.36,17 19.31,17C20.81,17 22,15.75 22,14.25C22,13.39 21.64,12.57 21,12C21.64,11.43 22,10.61 22,9.69C22,8.19 20.75,7 19.25,7C17.36,7 15.82,8.7 12.83,12M12,12.82C8.7,15.82 7,17.36 7,19.31C7,20.81 8.25,22 9.75,22C10.61,22 11.43,21.64 12,21C12.57,21.64 13.39,22 14.31,22C15.81,22 17,20.75 17,19.25C17,17.36 15.3,15.82 12,12.82Z" /></svg>
